X: 1
T: Dance Of The Riverwoman
M: 9/8
L: 1/8
R: slip jig
K: Emin
|:E2d cBA GAB|BAG ABG EGA|BAG AGE DEF|GFE FED G,DE:|
E2e dcB cBA|GAE ADA EGA|E2e dcB cBA|GAE ADA EGA|
cEE BEE AEE|cEB EAE BEc|dcB ABG EBc|dcB ABG e3||
